X:1
T:Title
L:1/4
M:none
I:linebreak $
K:G
V:1 treble
V:1
 B B c c | B B c c | B2 e2 | z4 |$ A A B B | A A B B |"D7" A2 d2 | z4 ||$ D E G B | _B2 B e/_e/ | %10
 d B G D F2 E2 E D |$"A7" ^C E G B | ^A B D E |"G" G2 z2 | z4 | %15
